X:10980
T:Miss Skinner's Reel
M:2/2
L:1/8
S:Armitt MS
K:D major
F|DdFd E/2E/2E EF|DdFd DdFd|e/2d/2c/2B/2 dF E/2E/2E EF|DdFA D/2D/2D D2:|
|g|(d/2e/2f/2g/2) af geef|(d/2e/2f/2g/2)  af bgaf|gefd geef|(d/2c/2B/2A/
2) dF D/2D/2D D2
